X:1
T: No. 4 Polka
N:From a manuscript fragment titled "Fancy Dances Book Second! Bronson's
N:Orchestra, K.D. Bronson."  K.D. Bronson was a violinist and cornetist who led a
N:dance band in San Jose, California in the 1870's.  Measure 4 was missing in the
N:original, and was reconstructed by Vivian Williams.
Z:V.T. Williams
M:2/4
K:D
fAfe dcdB|B2A2 A2A2|GAce a2a2|FAdf a2a2|
fAfe dcdB|B2A2 A2A2|GAce a3c|d2d2 d2z2:|
|:a2ga bagf|d2c2 c2c2|a2ba bagf|e2d2 d2d2|
a2ga bad'f|f2e2 e2eb|a-cc-b a-cc-e|d2d2d2z2:|
S|:d6g2|g2f2 f2g2|a2g2 a2b2|a2g2 g2d2|d6g2|g2f2 f2g2|a2g2 a2b2|
|1g2g2 g2z2:|2g2g2 g2||d'd'|d'4z2d'd'|d'4z2d'd'|d'2d'2 d'2d'2|d'4"D.S."z4|]

